svg/ck.svg

<?xml version="1.0" encoding="UTF-8"?>
<svg width="600" height="300" xmlns="http://www.w3.org/2000/svg" xmlns:xlink="http://www.w3.org/1999/xlink">
  <rect width="600" height="300" fill="#00247d"/>
  <svg width="300" height="150">
    <path d="m0 0 300 150m0-150-300 150" stroke="#fff" stroke-width="30"/>
    <clipPath id="patrick">
      <path d="m150 75h150v75zv75h-150zh-150v-75zv-75h150z"/>
    </clipPath>
    <path d="m0 0 300 150m0-150-300 150" clip-path="url(#patrick)" stroke="#cf142b" stroke-width="20"/>
    <path d="m150 0v150m-150-75h300" stroke="#fff" stroke-width="50"/>
    <path d="m150 0v150m-150-75h300" stroke="#cf142b" stroke-width="30"/>
  </svg>
  <g transform="translate(450,150)">
    <g id="star" transform="translate(0,-102)" fill="#fff">
      <g id="c">
        <path id="t" transform="rotate(18 0,-22.5)" d="m0-22.5v22.5h12"/>
        <use transform="scale(-1,1)" xlink:href="#t"/>
      </g>
      <use transform="rotate(72)" xlink:href="#c"/>
      <use transform="rotate(144)" xlink:href="#c"/>
      <use transform="rotate(216)" xlink:href="#c"/>
      <use transform="rotate(288)" xlink:href="#c"/>
    </g>
    <use transform="rotate(24)" xlink:href="#star"/>
    <use transform="rotate(48)" xlink:href="#star"/>
    <use transform="rotate(72)" xlink:href="#star"/>
    <use transform="rotate(96)" xlink:href="#star"/>
    <use transform="rotate(120)" xlink:href="#star"/>
    <use transform="rotate(144)" xlink:href="#star"/>
    <use transform="rotate(168)" xlink:href="#star"/>
    <use transform="rotate(192)" xlink:href="#star"/>
    <use transform="rotate(216)" xlink:href="#star"/>
    <use transform="rotate(240)" xlink:href="#star"/>
    <use transform="rotate(264)" xlink:href="#star"/>
    <use transform="rotate(288)" xlink:href="#star"/>
    <use transform="rotate(312)" xlink:href="#star"/>
    <use transform="rotate(336)" xlink:href="#star"/>
  </g>
</svg>

﻿<?xml version="1.0" encoding="UTF-8"?>
<svg xmlns="http://www.w3.org/2000/svg" xmlns:xlink="http://www.w3.org/1999/xlink" width="600" height="300">
	<rect width="600" height="300" fill="#00247d"/>
	<svg width="300" height="150">
		<path d="M 0,0 L 300,150 M 300,0 L 0,150" stroke="#fff" stroke-width="30"/>
		<clipPath id="patrick">
			<path d="M 150,75 h 150 v 75 z v 75 H 0 z H 0 V 0 z V 0 h 150 z"/>
		</clipPath>
		<path d="M 0,0 L 300,150 M 300,0 L 0,150" stroke="#cf142b" stroke-width="20" clip-path="url(#patrick)"/>
		<path d="M 150,0 v 150 M 0,75 h 300" stroke="#fff" stroke-width="50"/>
		<path d="M 150,0 v 150 M 0,75 h 300" stroke="#cf142b" stroke-width="30"/>
	</svg>
	<g transform="translate(450,150)">
		<g id="star" transform="translate(0,-102)" fill="#fff">
			<g id="c">
				<path id="t" d="M 0,-22.5 V 0 H 12" transform="rotate(18 0,-22.5)"/>
				<use xlink:href="#t" transform="scale(-1,1)"/>
			</g>
			<use xlink:href="#c" transform="rotate(72)"/>
			<use xlink:href="#c" transform="rotate(144)"/>
			<use xlink:href="#c" transform="rotate(216)"/>
			<use xlink:href="#c" transform="rotate(288)"/>
		</g>
		<use xlink:href="#star" transform="rotate(24)"/>
		<use xlink:href="#star" transform="rotate(48)"/>
		<use xlink:href="#star" transform="rotate(72)"/>
		<use xlink:href="#star" transform="rotate(96)"/>
		<use xlink:href="#star" transform="rotate(120)"/>
		<use xlink:href="#star" transform="rotate(144)"/>
		<use xlink:href="#star" transform="rotate(168)"/>
		<use xlink:href="#star" transform="rotate(192)"/>
		<use xlink:href="#star" transform="rotate(216)"/>
		<use xlink:href="#star" transform="rotate(240)"/>
		<use xlink:href="#star" transform="rotate(264)"/>
		<use xlink:href="#star" transform="rotate(288)"/>
		<use xlink:href="#star" transform="rotate(312)"/>
		<use xlink:href="#star" transform="rotate(336)"/>
	</g>
</svg>
